X: 8074
T: Connor's Horse
R: jig
M: 6/8
K: Adorian
|:cBA BAG|EFG AGB|cBA BAG|[M:9/8] E2G A3 A2B|
[M:6/8] cBA BAG|EFG AGB|cBc dcd|1 eAA A2B:|2 eAA A2F||
|:GFG g3|eaf ged|efg a3|aba age|
GFG g3|eaf ged|cBc dcd|1 eAA A2F:|2 eAA A2B||

